X: 13143
T: First Month Of Spring, The
R: reel
M: 4/4
K: Cmajor
cAfA G2EG|G2EG cded|cA3 GE3|1 GA B/c/d efed:|2 GA B/c/d e3d||
c3e geae|geeg a3g|geeg a2ge|eddc defa|
ge3 geae|geeg a3g|efa2 ageg|fdec dfed||

